svgs/screen_recorder.svg

<svg width="192" height="192" viewBox="0 0 192 192" fill="none" xmlns="http://www.w3.org/2000/svg"><g clip-path="url(#a)"><path d="M122 48H34c-6.627 0-12 5.373-12 12v72c0 6.627 5.373 12 12 12h88c6.627 0 12-5.373 12-12V60c0-6.627-5.373-12-12-12Zm12 40 36-28v72l-36-28" stroke="#000" stroke-width="12" stroke-linecap="round" stroke-linejoin="round"/><path d="M49 98a3 3 0 0 0-3 3v24a2.998 2.998 0 0 0 3 3 2.999 2.999 0 0 0 3-3v-4.758l6.879 6.879a2.998 2.998 0 1 0 4.242-4.242l-7.09-7.09c4.435-.54 7.97-4.219 7.97-8.789 0-4.935-4.066-9-9-9H49Zm26 0c-3.278 0-6 2.722-6 6v18c0 3.278 2.722 6 6 6h9a2.999 2.999 0 0 0 2.121-5.121A2.999 2.999 0 0 0 84 122h-9v-6h3a2.999 2.999 0 0 0 2.121-5.121A2.999 2.999 0 0 0 78 110h-3v-6h9a2.999 2.999 0 0 0 2.121-5.121A3 3 0 0 0 84 98h-9Zm26 0c-4.935 0-9 4.065-9 9v12c0 4.935 4.065 9 9 9h6c.796 0 1.559-.316 2.121-.879a2.996 2.996 0 0 0 0-4.242A2.996 2.996 0 0 0 107 122h-6c-1.692 0-3-1.308-3-3v-12c0-1.692 1.308-3 3-3h6c.796 0 1.559-.316 2.121-.879a2.996 2.996 0 0 0 0-4.242A2.998 2.998 0 0 0 107 98h-6Zm-49 6h3c1.692 0 3 1.308 3 3s-1.308 3-3 3h-3v-6Z" fill="#000"/></g><defs><clipPath id="a"><path fill="#fff" d="M0 0h192v192H0z"/></clipPath></defs></svg>

<?xml version="1.0" encoding="UTF-8" standalone="no"?><svg xmlns:android="http://schemas.android.com/apk/res/android" height="192" width="192" xmlns="http://www.w3.org/2000/svg">
  <g>
    <clip-path android:pathData="M0,0h192v192h-192z"/>
    <path d="M122,48H34C27.37,48 22,53.37 22,60L22,132C22,138.63 27.37,144 34,144H122C128.63,144 134,138.63 134,132V60C134,53.37 128.63,48 122,48Z" fill="#000000" fill-opacity="0.0" stroke="#000000" stroke-linecap="round" stroke-linejoin="round" stroke-width="12"/>
    <path d="M134,88L170,60V132L134,104" fill="#000000" fill-opacity="0.0" stroke="#000000" stroke-linecap="round" stroke-linejoin="round" stroke-width="12"/>
    <path d="M49,98C48.2,98 47.44,98.32 46.88,98.88C46.32,99.44 46,100.2 46,101V125C46,125.8 46.32,126.56 46.88,127.12C47.44,127.68 48.2,128 49,128C49.8,128 50.56,127.68 51.12,127.12C51.68,126.56 52,125.8 52,125V120.24L58.88,127.12C59.44,127.68 60.2,128 61,128C61.8,128 62.56,127.68 63.12,127.12C63.68,126.56 64,125.8 64,125C64,124.2 63.68,123.44 63.12,122.88L56.03,115.79C60.47,115.25 64,111.57 64,107C64,102.07 59.94,98 55,98H49ZM75,98C71.72,98 69,100.72 69,104V122C69,125.28 71.72,128 75,128H84C84.8,128 85.56,127.68 86.12,127.12C86.68,126.56 87,125.8 87,125C87,124.2 86.68,123.44 86.12,122.88C85.56,122.32 84.8,122 84,122H75V116H78C78.8,116 79.56,115.68 80.12,115.12C80.68,114.56 81,113.8 81,113C81,112.2 80.68,111.44 80.12,110.88C79.56,110.32 78.8,110 78,110H75V104H84C84.8,104 85.56,103.68 86.12,103.12C86.68,102.56 87,101.8 87,101C87,100.2 86.68,99.44 86.12,98.88C85.56,98.32 84.8,98 84,98H75ZM101,98C96.07,98 92,102.07 92,107V119C92,123.93 96.07,128 101,128H107C107.8,128 108.56,127.68 109.12,127.12C109.68,126.56 110,125.8 110,125C110,124.2 109.68,123.44 109.12,122.88C108.56,122.32 107.8,122 107,122H101C99.31,122 98,120.69 98,119V107C98,105.31 99.31,104 101,104H107C107.8,104 108.56,103.68 109.12,103.12C109.68,102.56 110,101.8 110,101C110,100.2 109.68,99.44 109.12,98.88C108.56,98.32 107.8,98 107,98H101ZM52,104H55C56.69,104 58,105.31 58,107C58,108.69 56.69,110 55,110H52V104Z" fill="#000000"/>
  </g>
</svg>
